X:1
T:Title
%%score [ 1 2 3 ]
L:1/8
Q:1/4=120
M:4/2
K:C
V:1 treble nm="S."
V:2 treble nm="A."
V:3 bass nm="T."
V:1
 F4 G2 | A4"^Verbum caro factum est: In hoc anni circulo" _B2 | AG>FF ED | %3
w: Ver- bum|ca- ro|fac * * * tum *|
w: |||
w: |||
 F2 z2 D"^15th century"E |[M:3/4] F4 F2 | G4 FE | GF E/D/D ^C>B, | D6- | D6!fine! || d4 d2 | %10
w: est de *|Vir- gi-|ne Ma *|ri * * * * * *|a.||1.~In hoc|
w: ||||||3.Stel- la|
w: ||||||5.~Laus, ho-|
 c4 _B2 | Ac _BA G>F | A4 z2 | _B4 c2 | d3 c A2 | _B2 A2 G2 | A2 FA GF | A4 z2 | F4 G2 | A3 G _B2 | %20
w: an- ni|cir * * * cu *|lo|Vi- ta|da * tur|se * *|* * * cu *|lo,|Na- to|no * bis|
w: So- lem|pro * * * tu *|lit|Sol sa-|lu * tem|con * *|* * * tu *|lit,|Car- nem|ve * ram|
w: nor, vir-|tus * * * Do- mi-|no|De- o|Pa- tri et|Fi * *|* * * li *|o,|San- cto|sim * ul|
 A F2 G ED | F2 z2 DE | F3 G FE | G2 _B A-A/G/F | EG FD>^CC/B,/ | D6- | D6 || %27
w: Par * * vu *|lo de *|Vir * gi *|ne * Ma * * *|ri * * * * * *|a.||
w: ab * * stu *|lit de *||||||
w: Pa * ra- cle *|to de *||||||
V:2
 C4 D2 | E4 F2 | ED>CC B,A, | C2 z2 A,B, |[M:3/4] C4 C2 | D4 CB, | DC B,/A,/A, ^G,>^F, | A,6- | %8
w: Ver- bum|ca- ro|fac * * * tum *|est de *|Vir- gi-|ne Ma *|ri * * * * * *|a.|
w: ||||||||
w: ||||||||
 A,6 || A4 A2 | G4 F2 | EG FE D>C | E4 z2 | F4 G2 | A3 G E2 | F2 E2 D2 | E2 CE DC | E4 z2 | C4 D2 | %19
w: |1.~In hoc|an- ni|cir * * * cu *|lo|Vi- ta|da * tur|se * *|* * * cu *|lo,|Na- to|
w: |3.Stel- la|So- lem|pro * * * tu *|lit|Sol sa-|lu * tem|con * *|* * * tu *|lit,|Car- nem|
w: |5.~Laus, ho-|nor, vir-|tus * * * Do- mi-|no|De- o|Pa- tri et|Fi * *|* * * li *|o,|San- cto|
 E3 D F2 | E C2 D B,A, | C2 z2 A,B, | C3 D CB, | D2 F E-E/D/C | B,D CA,>^G,G,/^F,/ | A,6- | A,6 || %27
w: no * bis|Par * * vu *|lo de *|Vir * gi *|ne * Ma * * *|ri * * * * * *|a.||
w: ve * ram|ab * * stu *|lit de *||||||
w: sim * ul|Pa * ra- cle *|to de *||||||
V:3
 F,4 _B,2 | A,2 C2 D2 | C _B,2 A, G,2 | F,2 z2 F,G, |[M:3/4] A,2 F,2 A,2 | G, B,2 C A,2 | %6
w: ||||||
 G,2 A,F, E,2 | D,6- | D,6 || D,3 E, F,2 | E,4 D,2 | C,2 D,2 _B,,2 | A,,4 z2 | D,4 E,2 | %14
w: ||||||||
 D, F,2 E, C,2 | D,E, C,A,, _B,,2 | C, A,,2 C, _B,,2 | A,,4 z2 | A,4 _B,2 | A,2 C2 D2 | %20
w: ||||||
 CF, A,_B, G,2 | F,2 z2 F,G, |"^This edition  Andrew Sims 2016" A,2 _B,2 A,2 | G,2 DC _B,A, | %24
w: ||Vir * gi-|ne Ma * * *|
 G,2 A,F, E,2 | D,6- | D,6 || %27
w: ri * * *|a.||

